; generated by PrusaSlicer 2.3.1+x64 on 2021-07-07 at 16:18:01 UTC

; 

; external perimeters extrusion width = 0.45mm
; perimeters extrusion width = 0.45mm
; infill extrusion width = 0.45mm
; solid infill extrusion width = 0.45mm
; top infill extrusion width = 0.40mm
; first layer extrusion width = 0.42mm

M73 P0 R133
M73 Q0 S133
M201 X1000 Y1000 Z200 E5000 ; sets maximum accelerations, mm/sec^2
M203 X200 Y200 Z12 E120 ; sets maximum feedrates, mm/sec
M204 P1250 R1250 T1250 ; sets acceleration (P, T) and retract acceleration (R), mm/sec^2
M205 X8.00 Y8.00 Z0.40 E4.50 ; sets the jerk limits, mm/sec
M205 S0 T0 ; sets the minimum extruding and travel feed rate, mm/sec
M107
;TYPE:Custom
M862.3 P "MK3S" ; printer model check
M862.1 P0.4 ; nozzle diameter check
M115 U3.10.0 ; tell printer latest fw version
G90 ; use absolute coordinates
M83 ; extruder relative mode
M140 S100 ; set bed temp
M190 S100 ; wait for bed temp
G4 P100000 ; delay 
M104 S260 ; set extruder temp

M109 S260 ; wait for extruder temp
G28 W ; home all without mesh bed level
G80 ; mesh bed leveling
G1 Y-3.0 F1000.0 ; go outside print area
G92 E0.0
G1 X60.0 E9.0 F1000.0 ; intro line
G1 X100.0 E12.5 F1000.0 ; intro line
G92 E0.0
M221 S95

; Don't change E values below. Excessive value can damage the printer.
M907 E430 ; set extruder motor current
G21 ; set units to millimeters
G90 ; use absolute coordinates
M83 ; use relative distances for extrusion
M900 K0.04 ; Filament gcode LA 1.5
M900 K20 ; Filament gcode LA 1.0
;LAYER_CHANGE
;Z:0.2
;HEIGHT:0.2
;BEFORE_LAYER_CHANGE
G92 E0.0
;0.2


G1 E-0.80000 F2100.000
G1 Z0.400 F10800.000
;AFTER_LAYER_CHANGE
;0.2
G1 X61.327 Y68.811
M73 P0 R132
G1 Z0.200
G1 E0.80000 F2100.000
M204 S1000
;TYPE:Skirt
;WIDTH:0.42
G1 F1200.000
G1 X61.813 Y68.440 E0.01917
G1 X62.381 Y68.205 E0.01929
G1 X62.995 Y68.123 E0.01941
G1 X187.004 Y68.123 E3.88821
G1 X187.906 Y68.302 E0.02884
G1 X188.670 Y68.808 E0.02872
G1 X189.185 Y69.565 E0.02872
G1 X189.377 Y70.461 E0.02872
G1 X189.377 Y139.538 E2.16587
G1 X189.288 Y140.143 E0.01917
G1 X189.049 Y140.706 E0.01917
G1 X188.673 Y141.189 E0.01917
G1 X188.187 Y141.560 E0.01917
G1 X187.619 Y141.795 E0.01929
G1 X187.005 Y141.877 E0.01941
G1 X62.985 Y141.877 E3.88856
G1 X62.375 Y141.793 E0.01929
G1 X61.804 Y141.554 E0.01941
G1 X61.317 Y141.179 E0.01929
G1 X60.940 Y140.687 E0.01941
G1 X60.706 Y140.122 E0.01917
G1 X60.623 Y139.513 E0.01929
G1 X60.623 Y70.470 E2.16479
G1 X60.711 Y69.860 E0.01929
G1 X60.950 Y69.298 E0.01917
G1 X61.290 Y68.859 E0.01741
;WIPE_START
G1 F8640.000
G1 X61.813 Y68.440 E-0.15464
G1 X62.381 Y68.205 E-0.14208
G1 X62.995 Y68.123 E-0.14295
G1 X64.382 Y68.123 E-0.32032
;WIPE_END
G1 E-0.04000 F2100.000
G1 Z0.600 F10800.000
G1 X60.530 Y66.435
G1 Z0.200
G1 E0.80000 F2100.000
G1 F1200.000
G1 X62.453 Y65.787 E0.06363
G1 X187.486 Y65.790 E3.92032
G1 X188.435 Y65.974 E0.03029
G1 X189.343 Y66.365 E0.03101
G1 X190.562 Y67.388 E0.04990
G1 X191.353 Y68.606 E0.04551
G1 X191.713 Y69.989 E0.04481
G1 X191.713 Y140.010 E2.19546
G1 X191.415 Y141.233 E0.03947
G1 X191.006 Y142.049 E0.02862
G1 X190.108 Y143.061 E0.04242
G1 X189.470 Y143.565 E0.02550
G1 X187.547 Y144.213 E0.06363
G1 X62.490 Y144.213 E3.92106
G1 X61.267 Y143.915 E0.03947
G1 X60.451 Y143.506 E0.02862
G1 X59.439 Y142.608 E0.04242
G1 X58.935 Y141.970 E0.02550
G1 X58.287 Y140.047 E0.06363
G1 X58.287 Y69.990 E2.19657
G1 X58.585 Y68.767 E0.03947
G1 X58.994 Y67.951 E0.02862
G1 X59.892 Y66.939 E0.04242
G1 X60.483 Y66.473 E0.02362
G1 X60.716 Y66.769 F10800.000
G1 F1200.000
G1 X62.484 Y66.164 E0.05860
G1 X187.467 Y66.167 E3.91877
G1 X188.341 Y66.340 E0.02792
G1 X189.166 Y66.699 E0.02823
G1 X190.297 Y67.658 E0.04647
G1 X190.996 Y68.732 E0.04018
G1 X191.336 Y70.013 E0.04157
G1 X191.336 Y139.986 E2.19395
M73 Q0 S132
G1 X191.055 Y141.120 E0.03664
G1 X190.682 Y141.856 E0.02585
G1 X189.839 Y142.796 E0.03960
G1 X189.263 Y143.248 E0.02295
G1 X187.516 Y143.836 E0.05778
G1 X62.514 Y143.836 E3.91936
G1 X61.380 Y143.555 E0.03664
G1 X60.644 Y143.182 E0.02585
G1 X59.704 Y142.339 E0.03960
G1 X59.252 Y141.763 E0.02295
G1 X58.664 Y140.016 E0.05778
G1 X58.664 Y70.014 E2.19488
M73 P0 R131
G1 X58.945 Y68.880 E0.03664
G1 X59.318 Y68.144 E0.02585
G1 X60.161 Y67.204 E0.03960
G1 X60.668 Y66.806 E0.02021
G1 X60.900 Y67.103 F10800.000
G1 F1200.000
G1 X60.943 Y67.069 E0.00173
G1 X62.514 Y66.541 E0.05197
G1 X187.448 Y66.544 E3.91721
G1 X188.246 Y66.705 E0.02550
G1 X188.988 Y67.033 E0.02545
G1 X190.030 Y67.926 E0.04302
G1 X190.663 Y68.910 E0.03669
G1 X190.959 Y70.038 E0.03655
G1 X190.959 Y139.962 E2.19244
G1 X190.695 Y141.006 E0.03376
G1 X190.358 Y141.660 E0.02308
G1 X189.571 Y142.530 E0.03679
G1 X189.057 Y142.931 E0.02043
G1 X187.486 Y143.459 E0.05197
G1 X62.538 Y143.459 E3.91765
M73 P1 R131
M73 Q1 S132
G1 X61.494 Y143.195 E0.03376
G1 X60.840 Y142.858 E0.02308
G1 X59.970 Y142.071 E0.03679
G1 X59.569 Y141.557 E0.02043
G1 X59.041 Y139.986 E0.05197
G1 X59.041 Y70.038 E2.19317
G1 X59.305 Y68.994 E0.03376
G1 X59.642 Y68.340 E0.02308
G1 X60.429 Y67.470 E0.03679
G1 X60.853 Y67.140 E0.01682
G1 X61.149 Y67.387 F10800.000
G1 F1200.000
G1 X62.545 Y66.918 E0.04619
G1 X187.429 Y66.921 E3.91564
G1 X188.148 Y67.070 E0.02304
G1 X188.808 Y67.365 E0.02266
G1 X189.762 Y68.192 E0.03960
G1 X190.306 Y69.037 E0.03149
G1 X190.582 Y70.063 E0.03331
G1 X190.582 Y139.938 E2.19088
G1 X190.335 Y140.889 E0.03082
G1 X190.036 Y141.463 E0.02030
G1 X189.304 Y142.263 E0.03399
G1 X188.851 Y142.613 E0.01793
G1 X187.455 Y143.082 E0.04619
G1 X62.562 Y143.082 E3.91593
G1 X61.611 Y142.835 E0.03082
G1 X61.037 Y142.536 E0.02030
G1 X60.237 Y141.804 E0.03399
G1 X59.887 Y141.351 E0.01793
G1 X59.418 Y139.955 E0.04619
G1 X59.418 Y70.062 E2.19144
G1 X59.665 Y69.111 E0.03082
G1 X59.964 Y68.537 E0.02030
G1 X60.696 Y67.737 E0.03399
G1 X61.101 Y67.424 E0.01605
G1 X61.330 Y67.723 F10800.000
G1 F1200.000
G1 X62.576 Y67.295 E0.04130
G1 X187.410 Y67.298 E3.91408
G1 X188.013 Y67.423 E0.01933
G1 X188.628 Y67.697 E0.02110
G1 X189.492 Y68.457 E0.03609
G1 X189.972 Y69.214 E0.02809
M73 Q1 S131
G1 X190.205 Y70.087 E0.02835
G1 X190.205 Y139.913 E2.18933
G1 X189.977 Y140.771 E0.02783
G1 X189.715 Y141.264 E0.01752
G1 X189.039 Y141.995 E0.03121
G1 X188.647 Y142.294 E0.01546
G1 X187.424 Y142.705 E0.04045
G1 X62.587 Y142.705 E3.91418
G1 X61.729 Y142.477 E0.02783
G1 X61.236 Y142.215 E0.01752
G1 X60.505 Y141.539 E0.03121
G1 X60.206 Y141.147 E0.01546
G1 X59.795 Y139.924 E0.04045
G1 X59.795 Y70.087 E2.18969
M73 P1 R130
G1 X60.023 Y69.229 E0.02783
G1 X60.285 Y68.736 E0.01752
G1 X60.961 Y68.005 E0.03121
G1 X61.282 Y67.759 E0.01269
;WIPE_START
G1 F8640.000
G1 X62.576 Y67.295 E-0.31732
G1 X64.493 Y67.295 E-0.44268
;WIPE_END
G1 E-0.04000 F2100.000
G1 Z0.600 F10800.000
G1 X62.606 Y67.672
G1 Z0.200
G1 E0.80000 F2100.000
G1 F1200.000
G1 X187.389 Y67.676 E3.91248
G1 X187.914 Y67.787 E0.01682
G1 X188.445 Y68.028 E0.01829
G1 X189.222 Y68.721 E0.03263
G1 X189.616 Y69.341 E0.02306
G1 X189.828 Y70.113 E0.02510
G1 X189.828 Y139.887 E2.18770
G1 X189.620 Y140.649 E0.02477
G1 X189.396 Y141.062 E0.01474
G1 X188.775 Y141.725 E0.02845
G1 X188.445 Y141.975 E0.01301
G1 X187.394 Y142.328 E0.03476
G1 X62.613 Y142.328 E3.91241
G1 X61.851 Y142.120 E0.02477
G1 X61.438 Y141.896 E0.01474
G1 X60.775 Y141.275 E0.02845
G1 X60.525 Y140.945 E0.01301
G1 X60.172 Y139.894 E0.03476
G1 X60.172 Y70.113 E2.18792
G1 X60.380 Y69.351 E0.02477
G1 X60.604 Y68.938 E0.01474
G1 X61.225 Y68.275 E0.02845
G1 X61.555 Y68.025 E0.01301
G1 X62.549 Y67.691 E0.03288
G1 X62.668 Y68.426 F10800.000
G1 F1200.000
G1 X187.346 Y68.430 E3.90919
G1 X187.705 Y68.513 E0.01157
G1 X188.071 Y68.685 E0.01268
G1 X188.676 Y69.243 E0.02580
G1 X188.908 Y69.605 E0.01347
G1 X189.074 Y70.168 E0.01841
G1 X189.074 Y139.832 E2.18426
M73 P2 R130
M73 Q2 S131
G1 X188.909 Y140.394 E0.01838
G1 X188.763 Y140.649 E0.00919
G1 X188.254 Y141.179 E0.02305
G1 X188.044 Y141.334 E0.00819
G1 X187.332 Y141.574 E0.02355
G1 X62.668 Y141.574 E3.90876
G1 X62.106 Y141.409 E0.01838
G1 X61.851 Y141.263 E0.00919
G1 X61.321 Y140.754 E0.02305
G1 X61.166 Y140.544 E0.00819
G1 X60.926 Y139.832 E0.02355
G1 X60.926 Y70.168 E2.18427
G1 X61.091 Y69.606 E0.01838
G1 X61.237 Y69.351 E0.00919
G1 X61.746 Y68.821 E0.02305
G1 X61.956 Y68.666 E0.00819
G1 X62.611 Y68.445 E0.02167
G1 X62.154 Y68.988 F10800.000
G1 F1200.000
G1 X62.699 Y68.803 E0.01806
G1 X187.324 Y68.807 E3.90753
M73 Q2 S130
G1 X187.562 Y68.862 E0.00767
G1 X187.882 Y69.013 E0.01109
G1 X188.401 Y69.501 E0.02233
G1 X188.556 Y69.742 E0.00898
G1 X188.697 Y70.198 E0.01495
G1 X188.697 Y139.802 E2.18241
G1 X188.556 Y140.259 E0.01500
G1 X188.451 Y140.436 E0.00643
G1 X187.996 Y140.903 E0.02044
G1 X187.846 Y141.012 E0.00580
G1 X187.301 Y141.197 E0.01806
G1 X62.698 Y141.197 E3.90685
M73 P2 R129
G1 X62.241 Y141.056 E0.01500
G1 X62.064 Y140.951 E0.00643
G1 X61.597 Y140.496 E0.02044
G1 X61.488 Y140.346 E0.00580
G1 X61.303 Y139.801 E0.01806
G1 X61.303 Y70.198 E2.18237
G1 X61.444 Y69.741 E0.01500
G1 X61.549 Y69.564 E0.00643
G1 X62.004 Y69.097 E0.02044
G1 X62.105 Y69.024 E0.00392
G1 X62.348 Y69.312 F10800.000
G1 F1200.000
G1 X62.731 Y69.180 E0.01270
G1 X187.302 Y69.184 E3.90584
G1 X187.419 Y69.211 E0.00377
G1 X187.692 Y69.340 E0.00947
G1 X188.123 Y69.757 E0.01880
G1 X188.207 Y69.885 E0.00479
G1 X188.320 Y70.229 E0.01136
G1 X188.320 Y139.771 E2.18042
G1 X188.206 Y140.117 E0.01144
G1 X188.144 Y140.218 E0.00371
G1 X187.741 Y140.625 E0.01795
G1 X187.652 Y140.688 E0.00343
G1 X187.269 Y140.820 E0.01270
G1 X62.729 Y140.820 E3.90486
G1 X62.383 Y140.706 E0.01144
G1 X62.282 Y140.644 E0.00371
G1 X61.875 Y140.241 E0.01795
G1 X61.812 Y140.152 E0.00343
G1 X61.680 Y139.769 E0.01270
G1 X61.680 Y70.229 E2.18038
G1 X61.794 Y69.883 E0.01144
G1 X61.856 Y69.782 E0.00371
G1 X62.299 Y69.347 E0.01947
G1 X62.537 Y69.639 F10800.000
G1 F1200.000
G1 X62.764 Y69.557 E0.00757
G1 X187.250 Y69.557 E3.90315
G1 X187.500 Y69.667 E0.00856
G1 X187.843 Y70.010 E0.01522
G1 X187.943 Y70.264 E0.00856
G1 X187.943 Y139.736 E2.17822
G1 X187.861 Y139.963 E0.00757
G1 X187.490 Y140.343 E0.01666
G1 X187.236 Y140.443 E0.00856
G1 X62.764 Y140.443 E3.90271
G1 X62.537 Y140.361 E0.00757
G1 X62.157 Y139.990 E0.01666
G1 X62.057 Y139.736 E0.00856
G1 X62.057 Y70.264 E2.17822
G1 X62.157 Y70.010 E0.00856
G1 X62.491 Y69.676 E0.01480
G1 X62.737 Y69.963 F10800.000
G1 F1200.000
G1 X62.806 Y69.934 E0.00235
G1 X187.194 Y69.934 E3.90008
G1 X187.263 Y69.963 E0.00235
G1 X187.537 Y70.237 E0.01215
M73 Q2 S129
G1 X187.566 Y70.306 E0.00235
G1 X187.566 Y139.694 E2.17559
M73 P3 R129
G1 X187.537 Y139.763 E0.00235
G1 X187.263 Y140.037 E0.01215
G1 X187.194 Y140.066 E0.00235
G1 X62.806 Y140.066 E3.90008
M73 Q3 S129
G1 X62.737 Y140.037 E0.00235
G1 X62.463 Y139.763 E0.01215
G1 X62.434 Y139.694 E0.00235
G1 X62.434 Y70.306 E2.17559
M73 P3 R128
G1 X62.463 Y70.237 E0.00235
G1 X62.695 Y70.006 E0.01027
G1 X62.922 Y70.311 F10800.000
G1 F1200.000
G1 X187.078 Y70.311 E3.89283
G1 X187.189 Y70.422 E0.00490
G1 X187.189 Y139.578 E2.16834
G1 X187.078 Y139.689 E0.00490
G1 X62.922 Y139.689 E3.89283
G1 X62.811 Y139.578 E0.00490
G1 X62.811 Y70.422 E2.16834
G1 X62.879 Y70.354 E0.00302
; printing object tinker.obj id:0 copy 0
G1 X63.394 Y70.895 F10800.000
;TYPE:External perimeter
G1 F1200.000
G1 X64.025 Y70.840 E0.01983
G1 X64.522 Y70.753 E0.01582
G1 X65.001 Y70.710 E0.01510
G1 X66.976 Y70.710 E0.06191
G1 X67.455 Y70.747 E0.01508
G1 X67.950 Y70.836 E0.01577
G1 X68.465 Y70.890 E0.01622
G1 X69.472 Y70.910 E0.03158
G1 X180.528 Y70.910 E3.48208
G1 X181.534 Y70.894 E0.03154
G1 X182.048 Y70.845 E0.01619
G1 X182.547 Y70.759 E0.01587
G1 X183.027 Y70.710 E0.01513
G1 X184.998 Y70.710 E0.06180
G1 X185.478 Y70.757 E0.01512
G1 X185.976 Y70.843 E0.01585
G1 X186.606 Y70.895 E0.01984
G1 X186.664 Y71.529 E0.01996
G1 X186.752 Y72.027 E0.01584
G1 X186.790 Y72.508 E0.01514
G1 X186.790 Y74.494 E0.06225
G1 X186.761 Y74.975 E0.01511
G1 X186.670 Y75.469 E0.01577
G1 X186.612 Y75.986 E0.01630
G1 X186.590 Y76.998 E0.03173
G1 X186.591 Y133.502 E1.77166
G1 X186.602 Y134.011 E0.01595
G1 X186.644 Y134.524 E0.01614
G1 X186.790 Y135.515 E0.03142
G1 X186.790 Y137.490 E0.06190
G1 X186.743 Y137.972 E0.01519
G1 X186.657 Y138.472 E0.01591
G1 X186.604 Y139.107 E0.01998
G1 X185.974 Y139.166 E0.01985
G1 X185.480 Y139.256 E0.01575
G1 X185.001 Y139.290 E0.01506
G1 X183.019 Y139.290 E0.06213
G1 X182.541 Y139.276 E0.01500
G1 X182.053 Y139.182 E0.01558
G1 X181.538 Y139.117 E0.01628
G1 X180.529 Y139.090 E0.03166
G1 X69.472 Y139.090 E3.48212
G1 X68.465 Y139.110 E0.03158
G1 X67.950 Y139.165 E0.01622
G1 X67.455 Y139.253 E0.01576
G1 X66.976 Y139.290 E0.01508
G1 X65.001 Y139.290 E0.06192
G1 X64.521 Y139.248 E0.01510
G1 X64.025 Y139.160 E0.01581
G1 X63.394 Y139.105 E0.01984
G1 X63.339 Y138.471 E0.01996
G1 X63.251 Y137.973 E0.01587
G1 X63.210 Y137.491 E0.01516
G1 X63.210 Y135.509 E0.06214
G1 X63.252 Y135.027 E0.01516
G1 X63.339 Y134.529 E0.01587
G1 X63.392 Y134.013 E0.01627
G1 X63.410 Y133.002 E0.03169
G1 X63.410 Y76.998 E1.75596
G1 X63.391 Y75.987 E0.03169
G1 X63.339 Y75.471 E0.01627
G1 X63.251 Y74.973 E0.01587
G1 X63.210 Y74.491 E0.01516
G1 X63.210 Y72.509 E0.06214
G1 X63.252 Y72.027 E0.01516
G1 X63.339 Y71.529 E0.01587
G1 X63.393 Y70.955 E0.01808
G1 X63.744 Y71.089 F10800.000
;WIPE_START
G1 F8640.000
G1 X64.025 Y70.840 E-0.14827
G1 X64.522 Y70.753 E-0.11648
G1 X65.001 Y70.710 E-0.11122
G1 X66.664 Y70.710 E-0.38403
;WIPE_END
G1 E-0.04000 F2100.000
G1 Z0.600 F10800.000
G1 X66.001 Y133.583
G1 Z0.200
G1 E0.80000 F2100.000
G1 F1200.000
G1 X66.902 Y133.726 E0.02861
G1 X67.716 Y134.140 E0.02862
G1 X68.362 Y134.786 E0.02864
G1 X68.776 Y135.599 E0.02860
G1 X68.918 Y136.501 E0.02864
G1 X68.776 Y137.403 E0.02863
G1 X68.352 Y138.219 E0.02882
G1 X67.993 Y138.529 E0.01490
G1 X67.613 Y138.791 E0.01444
G1 X67.198 Y138.900 E0.01346
G1 X66.840 Y139.083 E0.01262
G1 X66.001 Y139.216 E0.02662
G1 X65.162 Y139.083 E0.02662
G1 X64.802 Y138.900 E0.01267
G1 X64.383 Y138.783 E0.01365
G1 X64.015 Y138.486 E0.01482
G1 X63.718 Y138.118 E0.01483
G1 X63.601 Y137.699 E0.01364
G1 X63.419 Y137.340 E0.01264
G1 X63.285 Y136.501 E0.02662
G1 X63.419 Y135.661 E0.02665
G1 X63.600 Y135.303 E0.01260
G1 X63.710 Y134.888 E0.01345
G1 X63.972 Y134.509 E0.01444
G1 X64.283 Y134.150 E0.01490
G1 X65.099 Y133.726 E0.02883
G1 X65.942 Y133.592 E0.02676
G1 X66.201 Y133.236 F10800.000
;WIPE_START
G1 F8640.000
G1 X66.902 Y133.726 E-0.22393
G1 X67.716 Y134.140 E-0.21077
G1 X68.362 Y134.786 E-0.21093
G1 X68.587 Y135.227 E-0.11436
;WIPE_END
G1 E-0.04000 F2100.000
G1 Z0.600 F10800.000
G1 X111.165 Y102.673
G1 Z0.200
G1 E0.80000 F2100.000
;TYPE:Perimeter
G1 F1200.000
G1 X111.748 Y102.552 E0.01864
G1 X112.199 Y102.401 E0.01492
G1 X112.413 Y102.286 E0.00763
G1 X112.337 Y102.866 E0.01835
G1 X112.317 Y103.403 E0.01685
G1 X112.326 Y103.927 E0.01643
G1 X111.923 Y103.378 E0.02136
G1 X111.209 Y102.714 E0.03057
;WIPE_START
G1 F8640.000
G1 X111.748 Y102.552 E-0.12978
G1 X112.199 Y102.401 E-0.10987
G1 X112.413 Y102.286 E-0.05616
G1 X112.337 Y102.866 E-0.13510
G1 X112.317 Y103.403 E-0.12411
G1 X112.326 Y103.927 E-0.12100
G1 X112.111 Y103.634 E-0.08398
;WIPE_END
G1 E-0.04000 F2100.000
G1 Z0.600 F10800.000
G1 X98.211 Y106.273
G1 Z0.200
G1 E0.80000 F2100.000
G1 F1200.000
G1 X97.854 Y107.018 E0.02590
G1 X95.291 Y113.409 E0.21590
G1 X94.050 Y113.421 E0.03892
G1 X93.450 Y113.682 E0.02049
G1 X93.473 Y113.315 E0.01152
G1 X93.479 Y109.755 E0.11163
G1 X95.936 Y106.955 E0.11681
G1 X96.371 Y107.051 E0.01395
G1 X96.900 Y107.051 E0.01659
G1 X97.908 Y106.471 E0.03648
G1 X98.160 Y106.306 E0.00944
;WIPE_START
G1 F8640.000
G1 X97.854 Y107.018 E-0.17901
G1 X96.917 Y109.353 E-0.58099
;WIPE_END
G1 E-0.04000 F2100.000
G1 Z0.600 F10800.000
G1 X93.840 Y105.050
G1 Z0.200
G1 E0.80000 F2100.000
G1 F1200.000
G1 X93.460 Y105.522 E0.01899
G1 X93.483 Y105.244 E0.00874
G1 X93.490 Y102.888 E0.07387
G1 X94.384 Y102.379 E0.03223
G1 X93.606 Y104.162 E0.06097
G1 X93.825 Y104.992 E0.02692
;WIPE_START
G1 F8640.000
G1 X93.460 Y105.522 E-0.14850
G1 X93.483 Y105.244 E-0.06438
G1 X93.490 Y102.888 E-0.54403
G1 X93.502 Y102.881 E-0.00309
;WIPE_END
G1 E-0.04000 F2100.000
G1 Z0.600 F10800.000
G1 X88.588 Y108.780
G1 Z0.200
G1 E0.80000 F2100.000
G1 F1200.000
