; generated by PrusaSlicer 2.3.1+x64 on 2021-07-09 at 15:50:29 UTC

; 

; external perimeters extrusion width = 0.45mm
; perimeters extrusion width = 0.45mm
; infill extrusion width = 0.45mm
; solid infill extrusion width = 0.45mm
; top infill extrusion width = 0.40mm
; first layer extrusion width = 0.42mm

M73 P0 R215
M73 Q0 S217
M201 X1000 Y1000 Z200 E5000 ; sets maximum accelerations, mm/sec^2
M203 X200 Y200 Z12 E120 ; sets maximum feedrates, mm/sec
M204 P1250 R1250 T1250 ; sets acceleration (P, T) and retract acceleration (R), mm/sec^2
M205 X8.00 Y8.00 Z0.40 E4.50 ; sets the jerk limits, mm/sec
M205 S0 T0 ; sets the minimum extruding and travel feed rate, mm/sec
M107
;TYPE:Custom
M862.3 P "MK3S" ; printer model check
M862.1 P0.4 ; nozzle diameter check
M115 U3.10.0 ; tell printer latest fw version
G90 ; use absolute coordinates
M83 ; extruder relative mode
M140 S100 ; set bed temp
M190 S100 ; wait for bed temp
G4 P100000 ; delay 
M104 S260 ; set extruder temp

M109 S260 ; wait for extruder temp
G28 W ; home all without mesh bed level
G80 ; mesh bed leveling
G1 Y-3.0 F1000.0 ; go outside print area
G92 E0.0
G1 X60.0 E9.0 F1000.0 ; intro line
M73 Q0 S216
G1 X100.0 E12.5 F1000.0 ; intro line
G92 E0.0
M221 S95

; Don't change E values below. Excessive value can damage the printer.
M907 E430 ; set extruder motor current
G21 ; set units to millimeters
G90 ; use absolute coordinates
M83 ; use relative distances for extrusion
M900 K0.04 ; Filament gcode LA 1.5
M900 K20 ; Filament gcode LA 1.0
;LAYER_CHANGE
;Z:0.2
;HEIGHT:0.2
;BEFORE_LAYER_CHANGE
G92 E0.0
;0.2


G1 E-0.80000 F2100.000
G1 Z0.400 F10800.000
;AFTER_LAYER_CHANGE
;0.2
G1 X38.752 Y41.847
G1 Z0.200
G1 E0.80000 F2100.000
M204 S1000
;TYPE:Skirt
;WIDTH:0.42
G1 F1200.000
G1 X39.122 Y41.164 E0.02437
G1 X39.523 Y40.759 E0.01787
G1 X66.440 Y19.495 E1.07553
G1 X66.971 Y19.184 E0.01929
G1 X67.560 Y19.020 E0.01917
G1 X193.903 Y18.995 E3.96138
G1 X194.450 Y19.060 E0.01728
G1 X194.964 Y19.247 E0.01716
G1 X195.425 Y19.550 E0.01728
G1 X195.804 Y19.950 E0.01728
G1 X210.953 Y41.266 E0.81995
G1 X211.226 Y41.788 E0.01846
G1 X211.362 Y42.357 E0.01835
G1 X211.377 Y168.529 E3.95604
G1 X211.248 Y169.296 E0.02437
G1 X210.878 Y169.979 E0.02437
G1 X189.878 Y190.357 E0.91748
G1 X189.274 Y190.771 E0.02296
G1 X188.573 Y190.981 E0.02296
G1 X62.241 Y191.004 E3.96103
M73 P0 R214
G1 X61.475 Y190.874 E0.02437
G1 X60.791 Y190.504 E0.02437
G1 X39.339 Y170.222 E0.92566
G1 X38.883 Y169.602 E0.02414
G1 X38.648 Y168.865 E0.02426
G1 X38.623 Y42.614 E3.95850
G1 X38.742 Y41.907 E0.02249
;WIPE_START
G1 F8640.000
G1 X39.122 Y41.164 E-0.19266
G1 X39.523 Y40.759 E-0.13161
G1 X41.004 Y39.589 E-0.43574
;WIPE_END
G1 E-0.04000 F2100.000
G1 Z0.600 F10800.000
G1 X57.550 Y187.180
G1 Z0.200
G1 E0.80000 F2100.000
G1 F1200.000
G1 X57.605 Y180.312 E0.21536
G1 X57.884 Y179.443 E0.02862
G1 X58.326 Y178.653 E0.02837
G1 X59.216 Y177.691 E0.04112
G1 X60.379 Y176.963 E0.04299
G1 X61.721 Y176.615 E0.04349
G1 X66.771 Y176.615 E0.15834
G1 X68.189 Y177.001 E0.04606
G1 X69.163 Y177.606 E0.03596
G1 X69.993 Y178.435 E0.03677
G1 X70.509 Y179.244 E0.03008
G1 X70.741 Y179.913 E0.02221
G1 X179.604 Y179.913 E3.41331
G1 X179.885 Y179.082 E0.02750
G1 X180.368 Y178.279 E0.02940
G1 X181.184 Y177.429 E0.03693
G1 X182.166 Y176.788 E0.03678
G1 X183.659 Y176.365 E0.04867
G1 X188.694 Y176.369 E0.15784
G1 X189.824 Y176.620 E0.03630
G1 X190.847 Y177.147 E0.03607
G1 X191.936 Y178.177 E0.04700
G1 X192.464 Y179.002 E0.03072
G1 X192.871 Y180.323 E0.04334
G1 X192.904 Y183.791 E0.10873
G1 X192.964 Y184.196 E0.01285
G1 X192.931 Y187.132 E0.09206
G1 X192.925 Y187.663 F10800.000
G1 F1200.000
G1 X192.905 Y189.517 E0.05811
G1 X192.576 Y190.581 E0.03493
G1 X192.085 Y191.412 E0.03025
G1 X191.102 Y192.406 E0.04383
G1 X190.022 Y193.030 E0.03913
G1 X188.759 Y193.340 E0.04076
G1 X61.739 Y193.340 E3.98261
G1 X60.516 Y193.042 E0.03947
G1 X59.699 Y192.632 E0.02865
G1 X58.606 Y191.655 E0.04598
G1 X57.864 Y190.444 E0.04453
G1 X57.535 Y189.076 E0.04412
G1 X57.546 Y187.695 E0.04329
G1 X57.924 Y187.534 F10800.000
G1 F1200.000
G1 X57.981 Y180.345 E0.22541
G1 X58.236 Y179.579 E0.02531
G1 X58.619 Y178.891 E0.02469
G1 X59.440 Y177.995 E0.03812
G1 X60.504 Y177.320 E0.03950
G1 X61.746 Y176.992 E0.04028
G1 X66.745 Y176.992 E0.15675
G1 X68.061 Y177.356 E0.04279
G1 X68.943 Y177.912 E0.03272
G1 X69.710 Y178.685 E0.03413
G1 X70.177 Y179.425 E0.02744
G1 X70.469 Y180.290 E0.02863
G1 X179.877 Y180.290 E3.43039
M73 Q0 S215
G1 X180.220 Y179.257 E0.03414
G1 X180.656 Y178.523 E0.02678
G1 X181.411 Y177.731 E0.03429
G1 X182.299 Y177.142 E0.03343
G1 X183.686 Y176.742 E0.04526
G1 X188.673 Y176.746 E0.15636
G1 X189.673 Y176.967 E0.03211
G1 X190.650 Y177.469 E0.03444
G1 X191.658 Y178.433 E0.04372
G1 X192.132 Y179.182 E0.02780
G1 X192.494 Y180.354 E0.03846
G1 X192.527 Y183.822 E0.10873
G1 X192.586 Y184.208 E0.01225
G1 X192.550 Y187.502 E0.10329
G1 X192.544 Y188.033 F10800.000
G1 F1200.000
G1 X192.528 Y189.485 E0.04551
G1 X192.240 Y190.410 E0.03038
G1 X191.799 Y191.165 E0.02743
G1 X190.889 Y192.094 E0.04076
G1 X189.903 Y192.671 E0.03582
G1 X188.735 Y192.963 E0.03774
G1 X61.763 Y192.963 E3.98114
G1 X60.629 Y192.681 E0.03664
G1 X59.893 Y192.308 E0.02587
G1 X58.879 Y191.394 E0.04281
G1 X58.223 Y190.326 E0.03929
G1 X57.912 Y189.055 E0.04101
G1 X57.920 Y188.049 E0.03154
G1 X58.297 Y187.887 F10800.000
G1 F1200.000
G1 X58.349 Y180.435 E0.23367
G1 X58.574 Y179.747 E0.02270
G1 X58.937 Y179.094 E0.02340
G1 X59.700 Y178.269 E0.03526
G1 X60.630 Y177.676 E0.03457
G1 X61.771 Y177.369 E0.03705
G1 X66.719 Y177.369 E0.15513
G1 X67.930 Y177.711 E0.03947
G1 X68.721 Y178.218 E0.02946
G1 X69.426 Y178.934 E0.03151
G1 X69.845 Y179.605 E0.02479
G1 X70.196 Y180.667 E0.03508
G1 X180.269 Y180.667 E3.45126
G1 X180.298 Y180.205 E0.01453
G1 X180.570 Y179.396 E0.02675
G1 X180.945 Y178.766 E0.02298
G1 X181.639 Y178.031 E0.03171
G1 X182.434 Y177.495 E0.03007
G1 X183.713 Y177.119 E0.04180
G1 X188.651 Y177.123 E0.15483
G1 X189.565 Y177.329 E0.02937
G1 X190.451 Y177.790 E0.03130
G1 X191.379 Y178.687 E0.04046
G1 X191.799 Y179.361 E0.02490
G1 X192.117 Y180.385 E0.03365
G1 X192.150 Y183.854 E0.10877
G1 X192.209 Y184.221 E0.01163
G1 X192.169 Y187.872 E0.11449
G1 X192.163 Y188.403 F10800.000
G1 F1200.000
G1 X192.151 Y189.452 E0.03290
G1 X191.903 Y190.240 E0.02588
G1 X191.511 Y190.920 E0.02462
G1 X190.674 Y191.783 E0.03770
G1 X189.783 Y192.313 E0.03250
G1 X188.711 Y192.586 E0.03467
G1 X61.787 Y192.586 E3.97964
G1 X60.743 Y192.321 E0.03376
G1 X60.088 Y191.984 E0.02309
G1 X59.153 Y191.134 E0.03963
G1 X58.561 Y190.156 E0.03585
G1 X58.290 Y189.035 E0.03617
G1 X58.294 Y188.402 E0.01983
G1 X58.671 Y188.240 F10800.000
G1 F1200.000
G1 X58.716 Y180.524 E0.24194
G1 X58.927 Y179.882 E0.02119
G1 X59.254 Y179.300 E0.02095
G1 X59.960 Y178.543 E0.03243
G1 X60.758 Y178.032 E0.02973
G1 X61.797 Y177.746 E0.03378
G1 X66.692 Y177.746 E0.15347
G1 X67.798 Y178.065 E0.03609
G1 X68.497 Y178.522 E0.02619
G1 X69.142 Y179.183 E0.02896
G1 X69.494 Y179.745 E0.02079
G1 X69.783 Y180.619 E0.02887
G1 X69.806 Y181.044 E0.01335
G1 X180.636 Y181.044 E3.47497
M73 P0 R213
G1 X180.665 Y180.297 E0.02344
G1 X180.921 Y179.536 E0.02517
G1 X181.257 Y178.979 E0.02039
G1 X181.899 Y178.305 E0.02918
G1 X182.571 Y177.847 E0.02552
G1 X183.741 Y177.496 E0.03830
G1 X188.629 Y177.500 E0.15326
G1 X189.456 Y177.691 E0.02659
G1 X190.249 Y178.110 E0.02816
G1 X191.098 Y178.940 E0.03719
G1 X191.465 Y179.538 E0.02201
G1 X191.741 Y180.417 E0.02889
G1 X191.774 Y183.889 E0.10885
G1 X191.832 Y184.234 E0.01099
G1 X191.788 Y188.242 E0.12567
G1 X191.782 Y188.773 F10800.000
G1 F1200.000
G1 X191.774 Y189.418 E0.02024
G1 X191.551 Y190.103 E0.02260
G1 X191.223 Y190.676 E0.02069
G1 X190.457 Y191.474 E0.03468
G1 X189.660 Y191.955 E0.02918
G1 X188.687 Y192.209 E0.03154
G1 X61.811 Y192.209 E3.97810
G1 X60.860 Y191.962 E0.03082
G1 X60.285 Y191.662 E0.02031
G1 X59.429 Y190.876 E0.03646
G1 X58.900 Y189.988 E0.03240
G1 X58.667 Y189.014 E0.03139
G1 X58.668 Y188.756 E0.00809
G1 X59.046 Y188.594 F10800.000
G1 F1200.000
G1 X59.084 Y180.613 E0.25024
G1 X59.279 Y180.018 E0.01965
G1 X59.570 Y179.507 E0.01845
G1 X60.218 Y178.819 E0.02963
G1 X60.888 Y178.387 E0.02499
G1 X61.824 Y178.123 E0.03047
G1 X66.664 Y178.123 E0.15177
G1 X67.662 Y178.418 E0.03263
G1 X68.271 Y178.824 E0.02293
G1 X68.835 Y179.403 E0.02535
G1 X69.144 Y179.886 E0.01798
G1 X69.415 Y180.708 E0.02715
G1 X69.434 Y181.421 E0.02237
G1 X181.006 Y181.421 E3.49826
G1 X181.032 Y180.389 E0.03237
G1 X181.272 Y179.677 E0.02356
G1 X181.567 Y179.194 E0.01775
G1 X182.157 Y178.580 E0.02671
G1 X182.711 Y178.199 E0.02108
G1 X183.770 Y177.873 E0.03474
G1 X188.607 Y177.877 E0.15165
G1 X189.344 Y178.052 E0.02375
G1 X190.046 Y178.429 E0.02500
G1 X190.815 Y179.190 E0.03392
G1 X191.131 Y179.713 E0.01916
G1 X191.364 Y180.449 E0.02420
G1 X191.397 Y183.925 E0.10898
G1 X191.455 Y184.248 E0.01032
G1 X191.406 Y188.612 E0.13682
G1 X191.400 Y189.143 F10800.000
G1 F1200.000
G1 X191.398 Y189.383 E0.00753
G1 X191.200 Y189.964 E0.01925
G1 X190.933 Y190.434 E0.01693
G1 X190.237 Y191.166 E0.03169
G1 X189.535 Y191.599 E0.02584
G1 X188.662 Y191.832 E0.02835
G1 X61.836 Y191.832 E3.97652
G1 X60.978 Y191.604 E0.02783
G1 X60.485 Y191.341 E0.01752
G1 X59.707 Y190.619 E0.03330
G1 X59.240 Y189.823 E0.02894
G1 X59.080 Y189.145 E0.02182
G1 X59.421 Y188.949 F10800.000
G1 F1200.000
G1 X59.452 Y180.703 E0.25857
G1 X59.631 Y180.155 E0.01808
G1 X59.885 Y179.715 E0.01590
G1 X60.476 Y179.095 E0.02688
G1 X61.021 Y178.741 E0.02037
G1 X61.851 Y178.500 E0.02710
G1 X66.636 Y178.500 E0.15002
G1 X67.525 Y178.770 E0.02913
G1 X68.014 Y179.100 E0.01851
G1 X68.551 Y179.651 E0.02411
G1 X68.811 Y180.066 E0.01535
G1 X69.047 Y180.795 E0.02403
G1 X69.058 Y181.798 E0.03146
G1 X181.379 Y181.798 E3.52175
M73 Q0 S214
G1 X181.399 Y180.479 E0.04138
G1 X181.606 Y179.852 E0.02068
G1 X181.854 Y179.440 E0.01509
G1 X182.417 Y178.854 E0.02547
G1 X182.853 Y178.549 E0.01670
G1 X183.799 Y178.250 E0.03111
G1 X188.583 Y178.254 E0.15000
G1 X189.229 Y178.412 E0.02085
G1 X189.840 Y178.746 E0.02184
G1 X190.530 Y179.438 E0.03066
G1 X190.796 Y179.887 E0.01633
G1 X190.987 Y180.481 E0.01960
G1 X191.020 Y183.963 E0.10916
G1 X191.077 Y184.264 E0.00961
G1 X191.025 Y188.982 E0.14793
G1 X190.930 Y189.599 F10800.000
G1 F1200.000
G1 X190.851 Y189.821 E0.00740
G1 X190.642 Y190.193 E0.01337
G1 X190.015 Y190.861 E0.02873
G1 X189.407 Y191.243 E0.02249
G1 X188.636 Y191.455 E0.02509
G1 X61.862 Y191.455 E3.97490
G1 X61.100 Y191.246 E0.02477
G1 X60.687 Y191.022 E0.01474
G1 X59.986 Y190.364 E0.03015
G1 X59.581 Y189.660 E0.02548
G1 X59.569 Y189.608 E0.00168
G1 X59.901 Y189.403 F10800.000
G1 F1200.000
G1 X59.798 Y188.954 E0.01445
G1 X59.819 Y180.792 E0.25591
M73 P1 R213
G1 X59.983 Y180.292 E0.01649
G1 X60.198 Y179.927 E0.01328
G1 X60.733 Y179.371 E0.02418
G1 X61.156 Y179.094 E0.01588
G1 X61.879 Y178.877 E0.02366
G1 X66.606 Y178.877 E0.14821
M73 Q1 S214
G1 X67.384 Y179.121 E0.02555
G1 X67.756 Y179.376 E0.01417
G1 X68.266 Y179.899 E0.02287
G1 X68.479 Y180.244 E0.01273
G1 X68.670 Y180.828 E0.01928
G1 X68.685 Y182.175 E0.04224
G1 X181.750 Y182.175 E3.54508
G1 X181.776 Y180.515 E0.05208
G1 X181.941 Y180.026 E0.01616
G1 X182.142 Y179.685 E0.01243
G1 X182.677 Y179.128 E0.02423
G1 X182.999 Y178.898 E0.01239
G1 X183.830 Y178.627 E0.02739
G1 X188.561 Y178.631 E0.14834
G1 X189.070 Y178.754 E0.01643
G1 X189.634 Y179.063 E0.02016
G1 X190.245 Y179.685 E0.02733
G1 X190.445 Y180.026 E0.01241
G1 X190.610 Y180.516 E0.01621
G1 X190.643 Y184.004 E0.10937
G1 X190.700 Y184.282 E0.00889
G1 X190.655 Y189.249 E0.15573
G1 X190.605 Y189.389 E0.00469
;WIPE_START
G1 F8640.000
G1 X190.655 Y189.249 E-0.03452
G1 X190.684 Y186.107 E-0.72548
;WIPE_END
G1 E-0.04000 F2100.000
G1 Z0.600 F10800.000
G1 X68.312 Y182.553
G1 Z0.200
G1 E0.80000 F2100.000
G1 F1200.000
G1 X182.122 Y182.553 E3.56842
G1 X182.152 Y180.553 E0.06269
G1 X182.289 Y180.171 E0.01274
G1 X182.430 Y179.929 E0.00876
G1 X182.939 Y179.400 E0.02304
G1 X183.149 Y179.245 E0.00819
G1 X183.861 Y179.005 E0.02356
G1 X188.539 Y179.008 E0.14666
G1 X188.911 Y179.097 E0.01201
G1 X189.427 Y179.380 E0.01844
G1 X189.956 Y179.929 E0.02392
G1 X190.097 Y180.171 E0.00876
G1 X190.234 Y180.553 E0.01274
G1 X190.267 Y184.049 E0.10961
G1 X190.323 Y184.303 E0.00815
G1 X190.290 Y189.152 E0.15205
G1 X190.153 Y189.534 E0.01274
G1 X190.012 Y189.776 E0.00876
G1 X189.502 Y190.307 E0.02310
G1 X189.144 Y190.535 E0.01328
G1 X188.581 Y190.700 E0.01842
G1 X61.917 Y190.700 E3.97146
M73 P1 R212
G1 X61.355 Y190.535 E0.01838
G1 X61.100 Y190.390 E0.00919
G1 X60.550 Y189.861 E0.02393
G1 X60.267 Y189.343 E0.01850
G1 X60.175 Y188.934 E0.01317
G1 X60.187 Y180.881 E0.25249
G1 X60.334 Y180.431 E0.01485
G1 X60.509 Y180.141 E0.01059
G1 X60.989 Y179.649 E0.02157
G1 X61.295 Y179.445 E0.01154
G1 X61.909 Y179.255 E0.02014
G1 X66.575 Y179.255 E0.14632
G1 X67.239 Y179.470 E0.02187
G1 X67.498 Y179.652 E0.00992
G1 X67.980 Y180.146 E0.02163
G1 X68.145 Y180.421 E0.01006
G1 X68.293 Y180.863 E0.01463
G1 X68.311 Y182.493 E0.05110
G1 X67.939 Y182.930 F10800.000
G1 F1200.000
G1 X182.496 Y182.930 E3.59186
G1 X182.518 Y180.650 E0.07147
G1 X182.638 Y180.316 E0.01113
G1 X182.741 Y180.143 E0.00633
G1 X183.197 Y179.675 E0.02045
G1 X183.347 Y179.567 E0.00580
G1 X183.892 Y179.382 E0.01806
G1 X188.517 Y179.385 E0.14500
G1 X188.758 Y179.442 E0.00776
G1 X189.179 Y179.665 E0.01495
G1 X189.645 Y180.143 E0.02091
G1 X189.748 Y180.316 E0.00633
G1 X189.868 Y180.650 E0.01112
G1 X189.890 Y184.097 E0.10809
G1 X189.946 Y184.326 E0.00739
G1 X189.924 Y189.055 E0.14827
G1 X189.804 Y189.389 E0.01112
G1 X189.701 Y189.562 E0.00633
G1 X189.247 Y190.028 E0.02040
G1 X189.007 Y190.183 E0.00894
G1 X188.551 Y190.323 E0.01495
G1 X61.947 Y190.323 E3.96960
G1 X61.490 Y190.182 E0.01500
G1 X61.313 Y190.078 E0.00643
G1 X60.836 Y189.613 E0.02089
G1 X60.613 Y189.191 E0.01495
G1 X60.552 Y188.914 E0.00891
G1 X60.554 Y180.970 E0.24908
G1 X60.685 Y180.571 E0.01316
G1 X60.816 Y180.360 E0.00779
G1 X61.244 Y179.927 E0.01909
G1 X61.439 Y179.794 E0.00738
G1 X61.940 Y179.632 E0.01650
G1 X66.543 Y179.632 E0.14434
G1 X67.088 Y179.817 E0.01806
G1 X67.238 Y179.925 E0.00580
G1 X67.694 Y180.393 E0.02045
G1 X67.797 Y180.566 E0.00633
G1 X67.917 Y180.900 E0.01113
G1 X67.938 Y182.870 E0.06175
G1 X67.563 Y183.307 F10800.000
G1 F1200.000
G1 X182.872 Y183.307 E3.61545
G1 X182.884 Y180.747 E0.08027
G1 X182.986 Y180.463 E0.00944
G1 X183.049 Y180.361 E0.00379
G1 X183.452 Y179.954 E0.01795
G1 X183.541 Y179.891 E0.00343
G1 X183.924 Y179.759 E0.01269
G1 X188.495 Y179.762 E0.14332
G1 X188.609 Y179.789 E0.00369
G1 X188.934 Y179.954 E0.01142
G1 X189.337 Y180.361 E0.01795
G1 X189.400 Y180.463 E0.00379
G1 X189.502 Y180.747 E0.00943
G1 X189.513 Y184.151 E0.10676
G1 X189.569 Y184.354 E0.00659
G1 X189.558 Y188.958 E0.14437
G1 X189.456 Y189.242 E0.00943
G1 X189.393 Y189.344 E0.00379
G1 X188.993 Y189.749 E0.01785
G1 X188.864 Y189.833 E0.00482
G1 X188.520 Y189.946 E0.01136
G1 X61.978 Y189.946 E3.96762
G1 X61.632 Y189.832 E0.01144
G1 X61.531 Y189.770 E0.00371
G1 X61.124 Y189.368 E0.01795
G1 X60.961 Y189.045 E0.01133
G1 X60.929 Y188.895 E0.00484
G1 X60.922 Y181.059 E0.24569
G1 X61.035 Y180.714 E0.01138
G1 X61.120 Y180.584 E0.00485
G1 X61.500 Y180.204 E0.01687
G1 X61.590 Y180.141 E0.00345
G1 X61.973 Y180.009 E0.01270
M73 Q1 S213
G1 X66.511 Y180.009 E0.14230
G1 X66.894 Y180.141 E0.01270
G1 X66.983 Y180.204 E0.00343
G1 X67.386 Y180.611 E0.01795
G1 X67.449 Y180.713 E0.00379
G1 X67.551 Y180.997 E0.00944
G1 X67.562 Y183.247 E0.07054
G1 X67.185 Y183.684 F10800.000
G1 F1200.000
G1 X183.250 Y183.684 E3.63916
G1 X183.250 Y180.843 E0.08907
G1 X183.350 Y180.589 E0.00856
G1 X183.703 Y180.235 E0.01566
G1 X183.957 Y180.136 E0.00856
G1 X188.443 Y180.136 E0.14064
G1 X188.693 Y180.245 E0.00856
G1 X189.036 Y180.589 E0.01522
G1 X189.136 Y180.843 E0.00856
G1 X189.136 Y184.215 E0.10572
G1 X189.192 Y184.388 E0.00570
G1 X189.192 Y188.862 E0.14028
G1 X189.092 Y189.116 E0.00856
G1 X188.739 Y189.470 E0.01566
G1 X188.485 Y189.569 E0.00856
G1 X62.013 Y189.569 E3.96541
G1 X61.759 Y189.470 E0.00856
G1 X61.416 Y189.127 E0.01521
G1 X61.306 Y188.877 E0.00855
G1 X61.299 Y181.093 E0.24404
